X:15827
T:SPINDLE SHANKS(g)
M:4/4
L:1/8
K:G
~B2 Ad (3BAG) GA|BGdc BGGA|~B2Ad BGGA|(3Bcd) ef g2 ed|!
~B2 Ad (3BAG) GA|BGdc BGGA|~B2Ad BGGA|(3Bcd) ef g2 fg|!
~a3g abag|fgab c'2 bg|~a3g abag|fdef g2 dc|!
~a3g abag|fgab c'2 bc'|d'~a3 b~g3|fdef g2 dc|!
